X:1
T:James Gibb editions
T:Quando la sera - Azzaiolo
T:#
%%score [ 1 2 3 4 ]
L:1/8
Q:1/4=80
M:6/8
K:F
V:1 treble nm="Soprano"
V:2 treble nm="Alto"
V:3 treble-8 nm="Tenor"
V:4 bass nm="Bass"
V:1
"^Quando la sera""^Filippo Azzaiolo\n(c.1530-69)" GGA B2 B | B2 B B2 B | A2 G- GG^F | G2 z |: %4
w: ~Quan- do la se- ra|can- ta'l gri- o-|lin, bel * gri- o-|lin,|
w: ~Quan- do ch'el gal- lo|can- ta~~in- nan- ti~~el|dì cu * cu ru|cu,|
w: ~Quan- do~ Mar- tin sul|let- to giun- to|fu a * lei vi-|cin,|
 GGA B2 B |[M:6/8] B2 B B2 B | A2 G- GG^F | G2 z :| z2 z AAA | ^F2 z z2 z | AAA | ^F2 z FGA | %12
w: la mia si- gno- ra|fa chia- mar Mar-|tin, bel\- * lo Mar-|tin,|bal- la Mar-|tin,|can- ta Mar-|tin, fa, si, nun,|
w: la mia si- gno- ra|fa chia- mar Mar-|tin ch'el * ve- gna|su,|bal- la Mar-|tin,|can- ta Mar-||
w: al- zò la tes- ta~~e|sott' en- trò con|lei nel * bel con-|fin,|bal- la Mar-|tin,|can- ta Mar-||
 BBB dc/B/A/G/ | AA z AAA | GGG GG^F | G2 z ^FGA | BBB dc/B/A/G/ | AA z AAA | GGG GG^F || %19
w: fa, si, nun, fa, si, nun, ne- na,|ne- na, ca- ra ma-|don- na, ché lo fa- te~~a|me, fa, si, nun,|fa, si, nun, fa, si, nun, ne- na,|ne- na, ca- ra ma-|don- na, che lo fa- te~~a|
w: |||||||
w: |||||||
[M:4/4] G4 G4 | G6 G2 | G8 |] %22
w: me, lo|fa- te~~a|me.|
w: |||
w: |||
V:2
 DDF F2 F | F2 F F2 F | F2 D- DDD | D2 z |: DDF F2 F |[M:6/8] F2 F F2 F | F2 D- DDD | D2 z :| %8
w: ~Quan- do la se- ra|can- ta'l gri- o-|lin, bel * gri- o-|lin,|la mia si- gno- ra|fa chia- mar Mar-|tin, bel\- * lo Mar-|tin,|
w: ~Quan- do ch'el gal- lo|can- ta~~in- nan- ti~~el|dì cu * cu ru|cu,|la mia si- gno- ra|fa chia- mar Mar-|tin ch'el * ve- gna|su,|
w: ~Quan- do~ Mar- tin sul|let- to giun- to|fu a * lei vi-|cin,|al- zò la tes- ta~~e|sott' en- trò con|lei nel * bel con-|fin,|
 z2 z DD^C | D2 z z2 z | DD^C | D2 z DDF | FFF DE/F/F/E/ | FF z FFF | DD_E EDD | D2 z DDF | %16
w: bal- la Mar-|tin,|can- ta Mar-|tin, fa, si, nun,|fa, si, nun, fa, si, nun, ne- na,|ne- na, ca- ra ma-|don- na, ché lo fa- te~~a|me, fa, si, nun,|
w: bal- la Mar-|tin,|can- ta Mar-||||||
w: bal- la Mar-|tin,|can- ta Mar-||||||
 FFF DE/F/F/E/ | FF z FFF | DD_E EDD ||[M:4/4] D4 E4 | E6 E2 | D8 |] %22
w: fa, si, nun, fa, si, nun, ne- na,|ne- na, ca- ra ma-|don- na, che lo fa- te~~a|me, lo|fa- te~~a|me.|
w: ||||||
w: ||||||
V:3
 BBc d2 d | d2 d d2 d | c2 B- BAA | =B2 z |: BBc d2 d |[M:6/8][K:treble-8] d2 d d2 d | c2 B- BAA | %7
w: ~Quan- do la se- ra|can- ta'l gri- o-|lin, bel * gri- o-|lin,|la mia si- gno- ra|fa chia- mar Mar-|tin, bel\- * lo Mar-|
w: ~Quan- do ch'el gal- lo|can- ta~~in- nan- ti~~el|dì cu * cu ru|cu,|la mia si- gno- ra|fa chia- mar Mar-|tin ch'el * ve- gna|
w: ~Quan- do~ Mar- tin sul|let- to giun- to|fu a * lei vi-|cin,|al- zò la tes- ta~~e|sott' en- trò con|lei nel * bel con-|
 =B2 z :| BBB A2 z | z2 z BBB | A2 z | z2 z ABc | ddd fe/d/c/B/ | cc z ccc | =BBc cAA | %15
w: tin,|ca- ro Mar- tin,|sal- ta Mar-|tin,|fa, si, nun,|fa, si, nun, fa, si, nun, ne- na,|ne- na, ca- ra ma-|don- na, ché lo fa- te~~a|
w: su,|bal- la Mar- tin,|can- ta Mar-|tin,|||||
w: fin,|bal- la Mar- tin,|can- ta Mar-|tin,|||||
 =B2 z A_Bc | ddd fe/d/c/B/ | cc z ccc | =BBc cAA ||[M:4/4] =B4 c4 | c6 c2 | =B8 |] %22
w: me, fa, si, nun,|fa, si, nun, fa, si, nun, ne- na,|ne- na, ca- ra ma-|don- na, che lo fa- te~~a|me, lo|fa- te~~a|me.|
w: |||||||
w: |||||||
V:4
 G,G,F, B,,2 B,, | B,,2 B,, B,,2 B,, | F,2 G,- G,D,D, | G,,2 z |: G,G,F, B,,2 B,, | %5
w: ~Quan- do la se- ra|can- ta'l gri- o-|lin, bel * gri- o-|lin,|la mia si- gno- ra|
w: ~Quan- do ch'el gal- lo|can- ta~~in- nan- ti~~el|dì cu * cu ru|cu,|la mia si- gno- ra|
w: ~Quan- do~ Mar- tin sul|let- to giun- to|fu a * lei vi-|cin,|al- zò la tes- ta~~e|
[M:6/8] B,,2 B,, B,,2 B,, | F,2 G,- G,D,D, | G,,2 z :| G,G,G, D,2 z | z2 z G,G,G, | D,2 z | %11
w: fa chia- mar Mar-|tin, bel\- * lo Mar-|tin,|ca- ro Mar- tin,|sal- ta Mar-|tin,|
w: fa chia- mar Mar-|tin ch'el * ve- gna|su,|bal- la Mar- tin,|can- ta Mar-|tin,|
w: sott' en- trò con|lei nel * bel con-|fin,|bal- la Mar- tin,|can- ta Mar-|tin,|
 z2 z D,G,F, | B,,B,,B,, B,,B,,/B,,/F,/G,/ | F,F, z F,F,F, | G,G,C, C,D,D, | G,,2 z D,G,F, | %16
w: fa, si, nun,|fa, si, nun, fa, si, nun, ne- na,|ne- na, ca- ra ma-|don- na, ché lo fa- te~~a|me, fa, si, nun,|
w: |||||
w: |||||
 B,,B,,B,, B,,B,,/B,,/F,/G,/ | F,F, z F,F,F, | G,G,C, C,D,D, ||[M:4/4] G,4 C,4 | C,6 C,2 | G,,8 |] %22
w: fa, si, nun, fa, si, nun, ne- na,|ne- na, ca- ra ma-|don- na, che lo fa- te~~a|me, lo|fa- te~~a|me.|
w: ||||||
w: ||||||

